X: 328
T:Copenhagen Waltz. JaW.327
M:3/8
L:1/16
Q:40
S:James Winder Ms, Lancashire, 1835-41
R:Waltz
O:England
A:Wyresdale,Lancashire
H:1/16
Z:vmp.Chris Partington, Aug 2004
K:D
f<a|g<b f<a e<g|f<a d2 d<"sic"e|e<g A2 c<e|d<f A2 f<a|!
g<b f<a e<g|f<a d2 d<f|e<gA2 c<e|d4:|!
|:d<f|"sic"d<g A2 c<e|d<f A2 d<f|e<g A2 c<e|d<f A2 f<a|!
g<"c' in ms"b f<a e<g|f<g d2 d<f|e<g A2c<e|d4:|!
|:a2|b2a2f2|d4a2|b2a2f2|e4a2|!
b2a2f2|dcdfaf|edegfe|d4:|]
